X: 44
T:Lass O' Gowrie,The. HS.44
M:2/4
Q:60
C:"Set of Quadrilles,No2."
S:Henry Stables MS,Cumbria,late19thC
R:Quadrille
O:Walthwaite,nr.Ambleside.
A:England
Z:vmp.Chris Partington
K:D
A/G/|FA AB/c/|de dc|BA Bc/d/|ef eA/G/|!
FA AB/c/|de fe|d/c/B/A/ dF|E2D:|!
a/g/|fa de|fg af|gb ef|ga ba/g/|!
fa ef|de fe|d/c/B/A/ [dg][cf]|e2da/g/|!
fa de|fg af|gb ef|ga "sic"b2ag|!
fg ef|de fe|d/c/B/A/|dF|E2D||
